**kern	**kern	**dynam
*part1	*part1	*part1
*staff2	*staff1	*
*I"Piano	*	*
*clefF4	*clefF4	*
*k[f#]	*k[f#]	*
=1	=1	=1
*^	*	*
!	!	!	!LO:DY:a
(4D	4.DD	16r	<
.	.	(8GL 8B	.
.	.	8G 8B	.
8C#X	.	.	[
.	.	16EJk 16G	.
=	=	=	=
4.Cn)	4.DD	16r	.
.	.	8DL 8F# 8B	>
.	.	8D 8F# 8B	]
.	.	16DJk) 16F# 16A	.
=	=	=	=
!	!	!	!LO:DY:a
(4C	4.GG	16r	p
.	.	8DL 8G	.
.	.	8D 8G	.
8BB	.	.	.
.	.	[16DJk [16G	.
=	=	=	=
4AA	4.FFn	16DKL] 16G]	.
.	.	8D 8B	.
.	.	8D 8B	.
8GG)	.	.	.
.	.	[16DJk [16B	.
*v	*v	*	*
=	=	=
4.EE 4.GG	16DKL] 16B]	>
.	8G 8c	]
.	8G 8c	.
.	[16GJk [16c	.
=	=	=
4.CC 4.GG	16GKL] 16c]	.
.	8F#X 8A 8c 8e-X	.
.	8F# 8A 8c 8e-	.
.	16F#Jk 16A 16c 16e-	.
=	=	=
!	!LO:TX:a:t=rr.	!
4.GGG; 4.GG	4.D;: 4.G: 4.B: 4.d: 4.g:	.
==	==	==
*-	*-	*-
!!!system-decoration: {(s1,s2)}
